!!! OTL: Berkowitz452
!!! Chapter: 1
!!! Section: IV
!!! Page: 113
!!! Mode: 
!!! Encoder: DJB
**kern
*staff1
*I"Piano
=1-
*clefG2
*k[b-e-]
*B-:
*M2/4
16f/LL
16b-/
16b-/
16b-/JJ
16dd\LL
16b-\J
8b-\J
=2
8r
16a/LL
16b-/JJ
16bn\LL
16cc\J
8cc\J
=3
16f/LL
16cc/
16cc/
16cc/JJ
16ee-\LL
16cc\J
8cc\J
=4
8r
16b-\LL
16cc\JJ
16cc#\LL
16dd\J
8dd\J
=5
16ff\LL
16dd\
16dd\
16dd\JJ
16ee-\LL
16cc\
16cc\
16cc\JJ
=6
16dd\LL
16b-\
16b-\
16bn\JJ
16cc\LL
16dd\J
8cc\J
=7
!!linebreak:original
16cc\LL
16dd\
16cc\
16dd\JJ
16cc\LL
16dd\
16cc\
16dd\JJ
=8
16cc/LL
16b-/
16a/
16g/JJ
4f/
=9
16f#/LL
16g/
16g/
16g/JJ
16a/LL
16g/J
8g/J
=10
16g#/LL
16a/
16a/
16a/JJ
16cc\LL
16b-\J
8b-\J
=11
16dd\LL
16cc\J
8cc\J
16ee-\LL
16dd\J
8dd\J
=12
16een\LL
16ff\
16ff\
16ff\JJ
16ff\LL
16dd\J
[8ee-\J
=13
16ee-\LL]
16cc\J
[8dd\J
16dd\LL]
16bn\J
8cc\J
=14
!!linebreak:original
16r
16f/LL
16en/
16f/JJ
16f#/LL
16g/
16g#/
16a/JJ
=15
16cc\LL
16b-\
16b-\
16b-\JJ
8b-\
8r
==
*-
